build/svg/cmd/32/de/numberformatdecimal.svg

<?xml version="1.0" encoding="UTF-8" standalone="no"?>
<svg
   xmlns:dc="http://purl.org/dc/elements/1.1/"
   xmlns:cc="http://creativecommons.org/ns#"
   xmlns:rdf="http://www.w3.org/1999/02/22-rdf-syntax-ns#"
   xmlns:svg="http://www.w3.org/2000/svg"
   xmlns="http://www.w3.org/2000/svg"
   xmlns:sodipodi="http://sodipodi.sourceforge.net/DTD/sodipodi-0.dtd"
   xmlns:inkscape="http://www.inkscape.org/namespaces/inkscape"
   viewBox="0 0 32 32"
   version="1.1"
   id="svg4"
   sodipodi:docname="numberformatdecimal.svg"
   inkscape:version="0.92.5 (2060ec1f9f, 2020-04-08)"
   inkscape:export-filename="/home/jupiter007/Libreoffice yaru theme fullcolor/build/cmd/32/de/numberformatdecimal.png"
   inkscape:export-xdpi="95"
   inkscape:export-ydpi="95">
  <metadata
     id="metadata10">
    <rdf:RDF>
      <cc:Work
         rdf:about="">
        <dc:format>image/svg+xml</dc:format>
        <dc:type
           rdf:resource="http://purl.org/dc/dcmitype/StillImage" />
      </cc:Work>
    </rdf:RDF>
  </metadata>
  <defs
     id="defs8" />
  <sodipodi:namedview
     pagecolor="#ffffff"
     bordercolor="#666666"
     borderopacity="1"
     objecttolerance="10"
     gridtolerance="10"
     guidetolerance="10"
     inkscape:pageopacity="0"
     inkscape:pageshadow="2"
     inkscape:window-width="1920"
     inkscape:window-height="1011"
     id="namedview6"
     showgrid="true"
     inkscape:zoom="41.7193"
     inkscape:cx="11.360076"
     inkscape:cy="13.12379"
     inkscape:window-x="0"
     inkscape:window-y="32"
     inkscape:window-maximized="1"
     inkscape:current-layer="svg4">
    <inkscape:grid
       type="xygrid"
       id="grid833" />
  </sodipodi:namedview>
  <path
     sodipodi:nodetypes="cccscsccccccccscscccccc"
     inkscape:connector-curvature="0"
     id="path4237-1"
     d="M 6.994116,2.99971 C 5.735916,3.01421 4.815225,2.96911 4.062475,3.384475 3.686105,3.592135 3.389244,3.943862 3.224584,4.382522 3.059914,4.821192 2.999975,5.34211 2.999975,5.99971 V 7.487991 26.00029 c 0,0.65761 0.0599,1.178577 0.224609,1.617188 0.16468,0.438611 0.461531,0.788524 0.837891,0.996093 0.75272,0.41513 1.673541,0.371649 2.931641,0.386719 h 0.002 18.005859 0.0039 c 1.25819,-0.0145 2.178891,0.0306 2.931641,-0.384766 0.37637,-0.20766 0.673221,-0.559386 0.837891,-0.998046 0.164539,-0.438671 0.295172,-0.963374 0.224618,-1.617188 V 7.466507 5.99971 c 0,-0.6576 -0.0599,-1.178578 -0.224609,-1.617188 C 28.610736,3.943922 28.313885,3.593988 27.937525,3.386428 27.184755,2.971298 26.263924,3.01479 25.005834,2.99971 h -0.002 -18.005859 z"
     style="font-style:normal;font-variant:normal;font-weight:normal;font-stretch:normal;font-size:15px;line-height:125%;font-family:Ubuntu;-inkscape-font-specification:Ubuntu;text-align:center;letter-spacing:0px;word-spacing:0px;writing-mode:lr-tb;text-anchor:middle;display:inline;opacity:0.6;fill:#000000;fill-opacity:1;stroke:none;stroke-width:0.99980211" />
  <path
     inkscape:connector-curvature="0"
     id="path1993"
     d="m 11.983344,4.026894 c -1.556581,0.0108 -5.10999,-0.01175 -6.659941,0.03878 -0.461229,0.04267 -1.016188,0.20642 -1.15534,0.709967 -0.218994,0.635347 -0.108414,1.333787 -0.145796,1.981925 -0.0078,2.297084 -0.02297,17.596425 0.02152,19.885777 0.0391,0.461929 0.202551,1.012666 0.698756,1.163666 0.632456,0.225082 1.284144,0.12274 1.935974,0.154298 1.424235,0.0068 12.850563,0.01102 14.27642,0.01131 1.704531,3.5e-4 3.408388,-0.005 5.10719,-0.01851 0.511911,-0.01201 1.183699,0.01993 1.584745,-0.405191 0.421097,-0.539783 0.287073,-1.268021 0.322745,-1.903786 0.01187,-2.444323 0.02769,-17.911093 -0.0219,-20.356793 C 27.898437,4.886297 27.777725,4.425385 27.372578,4.243862 26.704409,3.949765 25.946373,4.075843 25.246657,4.038289 23.49225,4.026489 13.737783,4.025809 11.983344,4.026899 Z"
     style="opacity:1;vector-effect:none;fill:#a6d74f;fill-opacity:1;stroke:none;stroke-width:1;stroke-linecap:round;stroke-linejoin:bevel;stroke-miterlimit:4;stroke-dasharray:none;stroke-dashoffset:0;stroke-opacity:1"
     sodipodi:nodetypes="cccccccscccccccc" />
  <path
     style="opacity:1;fill:#4d4d4d;fill-opacity:1;stroke:none;stroke-width:8.77999973;stroke-linecap:round;stroke-linejoin:round;stroke-miterlimit:4;stroke-dasharray:none;stroke-opacity:1"
     d="M 10 10 C 7.784 10 6 11.784 6 14 L 6 18 C 6 20.216 7.784 22 10 22 C 12.216 22 14 20.216 14 18 L 14 14 C 14 11.784 12.216 10 10 10 z M 10 12 C 11.108 12 12 13.188682 12 14.666016 L 12 17.333984 C 12 18.811318 11.108 20 10 20 C 8.892 20 8 18.811318 8 17.333984 L 8 14.666016 C 8 13.188682 8.892 12 10 12 z "
     id="rect818" />
  <path
     id="path823"
     d="m 22,10 c -2.216,0 -4,1.784 -4,4 v 4 c 0,2.216 1.784,4 4,4 2.216,0 4,-1.784 4,-4 v -4 c 0,-2.216 -1.784,-4 -4,-4 z m 0,2 c 1.108,0 2,1.188682 2,2.666016 v 2.667968 C 24,18.811318 23.108,20 22,20 20.892,20 20,18.811318 20,17.333984 V 14.666016 C 20,13.188682 20.892,12 22,12 Z"
     style="opacity:1;fill:#4d4d4d;fill-opacity:1;stroke:none;stroke-width:8.77999973;stroke-linecap:round;stroke-linejoin:round;stroke-miterlimit:4;stroke-dasharray:none;stroke-opacity:1"
     inkscape:connector-curvature="0" />
  <rect
     style="opacity:1;fill:#4d4d4d;fill-opacity:1;stroke:none;stroke-width:10.75325966;stroke-linecap:round;stroke-linejoin:round;stroke-miterlimit:4;stroke-dasharray:none;stroke-opacity:1"
     id="rect817"
     width="1.5"
     height="4"
     x="20.657652"
     y="16.07519"
     ry="0.5"
     transform="rotate(15)" />
</svg>

<svg xmlns="http://www.w3.org/2000/svg" viewBox="0 0 32 32"><path d="M6.994 3c-1.258.014-2.179-.03-2.932.384a1.88 1.88 0 00-.837.999C3.06 4.82 3 5.343 3 6v20c0 .658.06 1.179.225 1.617.164.44.461.789.837.997.753.415 1.674.371 2.932.386h18.012c1.258-.014 2.179.03 2.932-.384a1.88 1.88 0 00.837-.999c.165-.438.296-.963.225-1.617V6c0-.658-.06-1.179-.225-1.617a1.875 1.875 0 00-.837-.997c-.753-.415-1.674-.371-2.932-.386H6.998z" style="line-height:125%;-inkscape-font-specification:Ubuntu;text-align:center" font-weight="400" font-size="15" font-family="Ubuntu" letter-spacing="0" word-spacing="0" text-anchor="middle" opacity=".6"/><path d="M11.983 4.027c-1.556.01-5.11-.012-6.66.039-.46.042-1.016.206-1.155.71-.219.635-.108 1.333-.146 1.982-.008 2.297-.023 17.596.022 19.885.039.462.202 1.013.699 1.164.632.225 1.284.123 1.936.154 1.424.007 12.85.011 14.276.012 1.704 0 3.408-.005 5.107-.019.512-.012 1.184.02 1.585-.405.421-.54.287-1.268.323-1.904.011-2.444.027-17.911-.022-20.357-.05-.402-.17-.863-.575-1.044-.669-.294-1.427-.168-2.126-.206-1.755-.012-11.51-.012-13.264-.011z" fill="#a6d74f"/><path d="M10 10c-2.216 0-4 1.784-4 4v4c0 2.216 1.784 4 4 4s4-1.784 4-4v-4c0-2.216-1.784-4-4-4zm0 2c1.108 0 2 1.189 2 2.666v2.668C12 18.811 11.108 20 10 20s-2-1.189-2-2.666v-2.668C8 13.189 8.892 12 10 12zM22 10c-2.216 0-4 1.784-4 4v4c0 2.216 1.784 4 4 4s4-1.784 4-4v-4c0-2.216-1.784-4-4-4zm0 2c1.108 0 2 1.189 2 2.666v2.668C24 18.811 23.108 20 22 20s-2-1.189-2-2.666v-2.668c0-1.477.892-2.666 2-2.666z" fill="#4d4d4d"/><rect width="1.5" height="4" x="20.658" y="16.075" ry=".5" transform="rotate(15)" fill="#4d4d4d"/></svg>
